;START_OF_HEADER
;HEADER_VERSION:0.1
;FLAVOR:Griffin
;GENERATOR.NAME:Cura_SteamEngine
;GENERATOR.VERSION:master
;GENERATOR.BUILD_DATE:2021-09-23
;TARGET_MACHINE.NAME:Ultimaker S5
;EXTRUDER_TRAIN.0.INITIAL_TEMPERATURE:200
;EXTRUDER_TRAIN.0.MATERIAL.VOLUME_USED:47318
;EXTRUDER_TRAIN.0.MATERIAL.GUID:FFFFFFFF-FFFF-FFFF-FFFF-FFFFFFFFFFFF
;EXTRUDER_TRAIN.0.NOZZLE.DIAMETER:0.4
;EXTRUDER_TRAIN.0.NOZZLE.NAME:AA 0.4
;BUILD_PLATE.TYPE:glass
;BUILD_PLATE.INITIAL_TEMPERATURE:60
;BUILD_VOLUME.TEMPERATURE:0
;PRINT.TIME:19930
;PRINT.GROUPS:1
;PRINT.SIZE.MIN.X:83.07
;PRINT.SIZE.MIN.Y:37.57
;PRINT.SIZE.MIN.Z:0.27
;PRINT.SIZE.MAX.X:246.93
;PRINT.SIZE.MAX.Y:202.43
;PRINT.SIZE.MAX.Z:10.07
;END_OF_HEADER
;Generated with Cura_SteamEngine master
T0
M82 ;absolute extrusion mode

G92 E0
M109 S200
G280 S1
G0 Z20.001
G1 F1500 E-6.5
;LAYER_COUNT:50
;LAYER:0
M107
M204 S625
M205 X6 Y6
G1 F600 Z2.27
G0 F1800 X246.3 Y198.388 Z2.27
M204 S500
M205 X5 Y5
;TYPE:SKIRT
G1 F600 Z0.27
G1 F1500 E0
G1 F1200 X245.539 Y199.665 E0.02642
G1 X244.523 Y200.75 E0.05285
G1 X243.3 Y201.594 E0.07926
G1 X241.924 Y202.158 E0.1057
G1 X240.46 Y202.415 E0.13212
G1 X240 Y202.43 E0.1403
G1 X90 Y202.43 E2.8067
G1 X88.522 Y202.271 E2.83312
G1 X87.112 Y201.8 E2.85955
G1 X85.835 Y201.039 E2.88597
G1 X84.75 Y200.023 E2.91239
G1 X83.906 Y198.8 E2.93881
G1 X83.342 Y197.424 E2.96524
G1 X83.085 Y195.96 E2.99167
G1 X83.07 Y195.5 E2.99985
G1 X83.07 Y124.5 E4.26194
G1 X83.229 Y123.022 E4.28837
G1 X83.7 Y121.612 E4.31479
G1 X84.461 Y120.335 E4.34122
G1 X84.737 Y120.006 E4.34885
G1 X83.906 Y118.8 E4.37488
G1 X83.342 Y117.424 E4.40132
G1 X83.085 Y115.96 E4.42774
G1 X83.07 Y115.5 E4.43592
G1 X83.07 Y44.5 E5.69802
G1 X83.229 Y43.022 E5.72444
G1 X83.7 Y41.612 E5.75087
G1 X84.461 Y40.335 E5.77729
G1 X85.477 Y39.25 E5.80371
G1 X86.7 Y38.406 E5.83013
G1 X88.076 Y37.842 E5.85656
G1 X89.54 Y37.585 E5.88298
G1 X90 Y37.57 E5.89117
G1 X240 Y37.57 E8.55756
G1 X241.478 Y37.729 E8.58399
G1 X242.888 Y38.2 E8.61041
G1 X244.165 Y38.961 E8.63684
G1 X245.25 Y39.977 E8.66326
G1 X246.094 Y41.2 E8.68967
G1 X246.658 Y42.576 E8.71611
G1 X246.915 Y44.04 E8.74253
G1 X246.93 Y44.5 E8.75071
G1 X246.93 Y115.5 E10.01281
G1 X246.771 Y116.978 E10.03923
G1 X246.3 Y118.388 E10.06566
G1 X245.539 Y119.665 E10.09208
G1 X245.263 Y119.994 E10.09972
G1 X246.094 Y121.2 E10.12575
G1 X246.658 Y122.576 E10.15218
G1 X246.915 Y124.04 E10.17861
G1 X246.93 Y124.5 E10.18679
G1 X246.93 Y195.5 E11.44888
G1 X246.771 Y196.978 E11.47531
G1 X246.3 Y198.388 E11.50173
M204 S625
M205 X6 Y6
G0 F1800 X245.88 Y198.293
M204 S500
M205 X5 Y5
G1 F1200 X245.122 Y199.518 E11.52734
G1 X244.113 Y200.546 E11.55294
G1 X242.902 Y201.327 E11.57856
G1 X241.55 Y201.823 E11.60416
G1 X240 Y202.01 E11.63191
G1 X90 Y202.01 E14.29831
G1 X88.568 Y201.851 E14.32392
G1 X87.207 Y201.38 E14.34952
G1 X85.982 Y200.622 E14.37513
G1 X84.954 Y199.613 E14.40073
G1 X84.173 Y198.402 E14.42635
G1 X83.677 Y197.05 E14.45195
G1 X83.49 Y195.5 E14.4797
G1 X83.49 Y124.5 E15.74179
G1 X83.649 Y123.068 E15.76741
G1 X84.12 Y121.707 E15.79301
G1 X84.878 Y120.482 E15.81861
G1 X85.304 Y119.997 E15.83009
G1 X84.53 Y119.029 E15.85212
G1 X83.887 Y117.74 E15.87773
G1 X83.545 Y116.341 E15.90333
G1 X83.49 Y115.5 E15.91831
G1 X83.49 Y44.5 E17.1804
G1 X83.649 Y43.068 E17.20601
G1 X84.12 Y41.707 E17.23162
G1 X84.878 Y40.482 E17.25722
G1 X85.887 Y39.454 E17.28283
G1 X87.098 Y38.673 E17.30844
G1 X88.45 Y38.177 E17.33404
G1 X90 Y37.99 E17.3618
G1 X240 Y37.99 E20.02819
G1 X241.432 Y38.149 E20.0538
G1 X242.793 Y38.62 E20.0794
G1 X244.018 Y39.378 E20.10501
G1 X245.046 Y40.387 E20.13062
G1 X245.827 Y41.598 E20.15623
G1 X246.323 Y42.95 E20.18183
G1 X246.51 Y44.5 E20.20958
G1 X246.51 Y115.5 E21.47168
G1 X246.351 Y116.932 E21.49729
G1 X245.88 Y118.293 E21.52289
G1 X245.122 Y119.518 E21.5485
G1 X244.696 Y120.003 E21.55997
G1 X245.47 Y120.971 E21.582
G1 X246.113 Y122.26 E21.60761
G1 X246.455 Y123.659 E21.63321
G1 X246.51 Y124.5 E21.64819
G1 X246.51 Y195.5 E22.91029
G1 X246.351 Y196.932 E22.9359
G1 X245.88 Y198.293 E22.9615
M204 S625
M205 X6 Y6
G0 F1800 X245.461 Y198.196
M204 S500
M205 X5 Y5
G1 F1200 X244.705 Y199.366 E22.98626
G1 X243.704 Y200.334 E23.01101
G1 X242.508 Y201.049 E23.03578
G1 X241.181 Y201.474 E23.06055
G1 X240 Y201.59 E23.08165
G1 X90 Y201.59 E25.74804
G1 X88.616 Y201.431 E25.77281
G1 X87.304 Y200.961 E25.79758
G1 X86.134 Y200.205 E25.82234
G1 X85.166 Y199.204 E25.84709
G1 X84.451 Y198.008 E25.87186
G1 X84.026 Y196.681 E25.89663
G1 X83.91 Y195.5 E25.91773
G1 X83.91 Y124.5 E27.17982
G1 X84.069 Y123.116 E27.20459
G1 X84.539 Y121.804 E27.22936
G1 X85.295 Y120.634 E27.25412
G1 X85.91 Y119.999 E27.26983
G1 X85.166 Y119.204 E27.28919
G1 X84.451 Y118.008 E27.31396
G1 X84.026 Y116.681 E27.33873
G1 X83.91 Y115.5 E27.35982
G1 X83.91 Y44.5 E28.62192
G1 X84.069 Y43.116 E28.64668
G1 X84.539 Y41.804 E28.67145
G1 X85.295 Y40.634 E28.69622
G1 X86.296 Y39.666 E28.72097
G1 X87.492 Y38.951 E28.74574
G1 X88.819 Y38.526 E28.77051
G1 X90 Y38.41 E28.7916
G1 X240 Y38.41 E31.458
G1 X241.384 Y38.569 E31.48276
G1 X242.696 Y39.039 E31.50754
G1 X243.866 Y39.795 E31.5323
G1 X244.834 Y40.796 E31.55705
G1 X245.549 Y41.992 E31.58182
G1 X245.974 Y43.319 E31.60659
G1 X246.09 Y44.5 E31.62768
G1 X246.09 Y115.5 E32.88978
G1 X245.931 Y116.884 E32.91454
G1 X245.461 Y118.196 E32.93931
G1 X244.705 Y119.366 E32.96408
G1 X244.09 Y120.001 E32.97979
G1 X244.834 Y120.796 E32.99915
G1 X245.549 Y121.992 E33.02392
G1 X245.974 Y123.319 E33.04868
G1 X246.09 Y124.5 E33.06978
G1 X246.09 Y195.5 E34.33187
G1 X245.931 Y196.884 E34.35664
G1 X245.461 Y198.196 E34.38141
M204 S625
M205 X6 Y6
G0 F1800 X245.042 Y198.094
M204 S500
M205 X5 Y5
G1 F1200 X244.29 Y199.208 E34.4053
G1 X243.296 Y200.113 E34.4292
G1 X242.118 Y200.76 E34.45309
G1 X240.82 Y201.11 E34.47699
G1 X240 Y201.17 E34.4916
G1 X90 Y201.17 E37.158
G1 X88.665 Y201.011 E37.1819
G1 X87.406 Y200.542 E37.20578
G1 X86.292 Y199.79 E37.22967
G1 X85.387 Y198.796 E37.25357
G1 X84.74 Y197.618 E37.27746
G1 X84.39 Y196.32 E37.30135
G1 X84.33 Y195.5 E37.31597
G1 X84.33 Y124.5 E38.57806
G1 X84.489 Y123.165 E38.60196
G1 X84.958 Y121.906 E38.62584
G1 X85.71 Y120.792 E38.64974
G1 X86.565 Y119.999 E38.67047
G1 X85.81 Y119.32 E38.68852
G1 X85.028 Y118.226 E38.71242
G1 X84.526 Y116.98 E38.7363
G1 X84.33 Y115.5 E38.76284
G1 X84.33 Y44.5 E40.02493
G1 X84.489 Y43.165 E40.04883
G1 X84.958 Y41.906 E40.07271
G1 X85.71 Y40.792 E40.0966
G1 X86.704 Y39.887 E40.1205
G1 X87.882 Y39.24 E40.14439
G1 X89.18 Y38.89 E40.16829
G1 X90 Y38.83 E40.1829
G1 X240 Y38.83 E42.8493
G1 X241.335 Y38.989 E42.8732
G1 X242.594 Y39.458 E42.89708
G1 X243.708 Y40.21 E42.92097
G1 X244.613 Y41.204 E42.94487
G1 X245.26 Y42.382 E42.96876
G1 X245.61 Y43.68 E42.99266
G1 X245.67 Y44.5 E43.00727
G1 X245.67 Y115.5 E44.26937
G1 X245.511 Y116.835 E44.29326
G1 X245.042 Y118.094 E44.31715
G1 X244.29 Y119.208 E44.34104
G1 X243.435 Y120.001 E44.36177
G1 X244.19 Y120.68 E44.37982
G1 X244.972 Y121.774 E44.40372
G1 X245.474 Y123.02 E44.4276
G1 X245.67 Y124.5 E44.45414
G1 X245.67 Y195.5 E45.71623
G1 X245.511 Y196.835 E45.74013
G1 X245.042 Y198.094 E45.76401
M204 S625
M205 X6 Y6
G0 F1800 X244.623 Y197.989
M204 S500
M205 X5 Y5
G1 F1200 X243.874 Y199.043 E45.787
G1 X242.891 Y199.882 E45.80997
G1 X241.732 Y200.456 E45.83296
G1 X240.468 Y200.729 E45.85595
G1 X240 Y200.75 E45.86428
G1 X90 Y200.75 E48.53067
G1 X88.717 Y200.591 E48.55366
G1 X87.511 Y200.123 E48.57665
G1 X86.457 Y199.374 E48.59964
G1 X85.618 Y198.391 E48.62261
G1 X85.044 Y197.232 E48.6456
G1 X84.771 Y195.968 E48.66859
G1 X84.75 Y195.5 E48.67691
G1 X84.75 Y124.5 E49.93901
G1 X84.909 Y123.217 E49.96199
G1 X85.377 Y122.011 E49.98498
G1 X86.126 Y120.957 E50.00797
G1 X87.109 Y120.118 E50.03094
G1 X87.314 Y120 E50.03515
G1 X86.457 Y119.374 E50.05401
G1 X85.618 Y118.391 E50.07699
G1 X85.044 Y117.232 E50.09998
G1 X84.771 Y115.968 E50.12296
G1 X84.75 Y115.5 E50.13129
G1 X84.75 Y44.5 E51.39338
G1 X84.909 Y43.217 E51.41637
G1 X85.377 Y42.011 E51.43936
G1 X86.126 Y40.957 E51.46235
G1 X87.109 Y40.118 E51.48532
G1 X88.268 Y39.544 E51.50831
G1 X89.532 Y39.271 E51.5313
G1 X90 Y39.25 E51.53962
G1 X240 Y39.25 E54.20602
G1 X241.283 Y39.409 E54.229
G1 X242.489 Y39.877 E54.252
G1 X243.543 Y40.626 E54.27498
G1 X244.382 Y41.609 E54.29795
G1 X244.956 Y42.768 E54.32094
G1 X245.229 Y44.032 E54.34393
G1 X245.25 Y44.5 E54.35226
G1 X245.25 Y115.5 E55.61435
G1 X245.091 Y116.783 E55.63733
G1 X244.623 Y117.989 E55.66033
G1 X243.874 Y119.043 E55.68331
G1 X242.891 Y119.882 E55.70629
G1 X242.686 Y120 E55.71049
G1 X243.543 Y120.626 E55.72936
G1 X244.382 Y121.609 E55.75233
G1 X244.956 Y122.768 E55.77532
G1 X245.229 Y124.032 E55.79831
G1 X245.25 Y124.5 E55.80664
G1 X245.25 Y195.5 E57.06873
G1 X245.091 Y196.783 E57.09171
G1 X244.623 Y197.989 E57.11471
M204 S625
M205 X6 Y6
G0 F1800 X244.204 Y197.878
M204 S500
M205 X5 Y5
G1 F1200 X243.46 Y198.87 E57.13675
G1 X242.488 Y199.64 E57.15879
G1 X241.351 Y200.137 E57.18085
G1 X240 Y200.33 E57.20511
G1 X90 Y200.33 E59.87151
G1 X88.77 Y200.171 E59.89355
G1 X87.622 Y199.704 E59.91558
G1 X86.63 Y198.96 E59.93762
G1 X85.86 Y197.988 E59.95967
G1 X85.363 Y196.851 E59.98173
G1 X85.17 Y195.5 E60.00598
G1 X85.17 Y124.5 E61.26808
G1 X85.329 Y123.27 E61.29013
G1 X85.796 Y122.122 E61.31216
G1 X86.54 Y121.13 E61.3342
G1 X87.512 Y120.36 E61.35624
G1 X88.181 Y119.974 E61.36997
G1 X87.102 Y119.364 E61.392
G1 X86.213 Y118.498 E61.41406
G1 X85.575 Y117.436 E61.43609
G1 X85.228 Y116.245 E61.45814
G1 X85.17 Y115.5 E61.47142
G1 X85.17 Y44.5 E62.73352
G1 X85.329 Y43.27 E62.75556
G1 X85.796 Y42.122 E62.77759
G1 X86.54 Y41.13 E62.79964
G1 X87.512 Y40.36 E62.82168
G1 X88.649 Y39.863 E62.84374
G1 X90 Y39.67 E62.868
G1 X240 Y39.67 E65.53439
G1 X241.23 Y39.829 E65.55644
G1 X242.378 Y40.296 E65.57847
G1 X243.37 Y41.04 E65.60051
G1 X244.14 Y42.012 E65.62255
G1 X244.637 Y43.149 E65.64461
G1 X244.83 Y44.5 E65.66887
G1 X244.83 Y115.5 E66.93097
G1 X244.671 Y116.73 E66.95301
G1 X244.204 Y117.878 E66.97504
G1 X243.46 Y118.87 E66.99708
G1 X242.488 Y119.64 E67.01913
G1 X241.819 Y120.026 E67.03286
G1 X242.898 Y120.636 E67.05489
G1 X243.787 Y121.502 E67.07695
G1 X244.425 Y122.564 E67.09897
G1 X244.772 Y123.755 E67.12103
G1 X244.83 Y124.5 E67.13431
G1 X244.83 Y195.5 E68.3964
G1 X244.671 Y196.73 E68.41845
G1 X244.204 Y197.878 E68.44048
M204 S625
M205 X6 Y6
G0 F1800 X243.785 Y197.763
M204 S500
M205 X5 Y5
G1 F1200 X243.046 Y198.689 E68.46154
G1 X242.087 Y199.385 E68.4826
G1 X240.978 Y199.8 E68.50365
G1 X240 Y199.91 E68.52115
G1 X90 Y199.91 E71.18754
G1 X88.826 Y199.751 E71.2086
G1 X87.737 Y199.285 E71.22966
G1 X86.811 Y198.546 E71.25072
G1 X86.115 Y197.587 E71.27178
G1 X85.7 Y196.478 E71.29283
G1 X85.59 Y195.5 E71.31033
G1 X85.59 Y124.5 E72.57242
G1 X85.749 Y123.326 E72.59348
G1 X86.215 Y122.237 E72.61454
G1 X86.954 Y121.311 E72.63559
G1 X87.913 Y120.615 E72.65666
G1 X89.022 Y120.2 E72.67771
G1 X90 Y120.09 E72.6952
G1 X240 Y120.09 E75.3616
G1 X241.174 Y120.249 E75.38266
G1 X242.263 Y120.715 E75.40371
G1 X243.189 Y121.454 E75.42477
G1 X243.885 Y122.413 E75.44584
G1 X244.3 Y123.522 E75.46689
G1 X244.41 Y124.5 E75.48438
G1 X244.41 Y195.5 E76.74647
G1 X244.251 Y196.674 E76.76753
G1 X243.785 Y197.763 E76.78859
M204 S625
M205 X6 Y6
G0 F1800 X243.367 Y197.641
M204 S500
M205 X5 Y5
G1 F1200 X242.634 Y198.497 E76.80862
G1 X241.691 Y199.114 E76.82865
G1 X240.614 Y199.442 E76.84867
G1 X240 Y199.49 E76.85962
G1 X90 Y199.49 E79.52601
G1 X88.885 Y199.331 E79.54603
G1 X87.859 Y198.867 E79.56605
G1 X87.003 Y198.134 E79.58608
G1 X86.386 Y197.191 E79.60611
G1 X86.058 Y196.114 E79.62613
G1 X86.01 Y195.5 E79.63707
G1 X86.01 Y124.5 E80.89917
G1 X86.169 Y123.385 E80.91919
G1 X86.633 Y122.359 E80.93921
G1 X87.366 Y121.503 E80.95924
G1 X88.309 Y120.886 E80.97927
G1 X89.386 Y120.558 E80.99928
G1 X90 Y120.51 E81.01023
G1 X240 Y120.51 E83.67663
G1 X241.115 Y120.669 E83.69665
G1 X242.141 Y121.133 E83.71666
G1 X242.997 Y121.866 E83.7367
G1 X243.614 Y122.809 E83.75673
G1 X243.942 Y123.886 E83.77674
G1 X243.99 Y124.5 E83.78769
G1 X243.99 Y195.5 E85.04978
G1 X243.831 Y196.615 E85.0698
G1 X243.367 Y197.641 E85.08982
M204 S625
M205 X6 Y6
G0 F1800 X243.411 Y196.553
M204 S500
M205 X5 Y5
G1 F1200 X242.949 Y197.513 E85.10876
G1 X242.224 Y198.293 E85.12769
G1 X241.301 Y198.825 E85.14663
G1 X240.79 Y198.981 E85.15612
G1 X240 Y199.07 E85.17026
G1 X90 Y199.07 E87.83665
G1 X88.947 Y198.911 E87.85558
G1 X87.987 Y198.449 E87.87452
G1 X87.207 Y197.724 E87.89345
G1 X86.675 Y196.801 E87.91239
G1 X86.519 Y196.29 E87.92189
G1 X86.43 Y195.5 E87.93602
G1 X86.43 Y124.5 E89.19811
G1 X86.589 Y123.447 E89.21704
G1 X87.051 Y122.487 E89.23598
G1 X87.776 Y121.707 E89.25491
G1 X88.699 Y121.175 E89.27385
G1 X89.21 Y121.019 E89.28335
G1 X90 Y120.93 E89.29748
G1 X240 Y120.93 E91.96387
G1 X241.053 Y121.089 E91.9828
G1 X242.013 Y121.551 E92.00174
G1 X242.793 Y122.276 E92.02067
G1 X243.325 Y123.199 E92.03961
G1 X243.481 Y123.71 E92.04911
G1 X243.57 Y124.5 E92.06324
G1 X243.57 Y195.5 E93.32533
G1 X243.411 Y196.553 E93.34426
M204 S625
M205 X6 Y6
G0 F1800 X242.991 Y196.487
M204 S500
M205 X5 Y5
G1 F1200 X242.531 Y197.375 E93.36204
G1 X241.816 Y198.074 E93.37981
G1 X240.917 Y198.513 E93.3976
G1 X240 Y198.65 E93.41408
G1 X90 Y198.65 E96.08048
G1 X89.013 Y198.491 E96.09825
G1 X88.125 Y198.031 E96.11602
G1 X87.426 Y197.316 E96.1338
G1 X86.987 Y196.417 E96.15158
G1 X86.85 Y195.5 E96.16807
G1 X86.85 Y124.5 E97.43016
G1 X87.009 Y123.513 E97.44793
G1 X87.469 Y122.625 E97.46571
G1 X88.184 Y121.926 E97.48348
G1 X89.083 Y121.487 E97.50127
G1 X90 Y121.35 E97.51775
G1 X240 Y121.35 E100.18414
G1 X240.987 Y121.509 E100.20192
G1 X241.875 Y121.969 E100.21969
G1 X242.574 Y122.684 E100.23747
G1 X243.013 Y123.583 E100.25525
G1 X243.15 Y124.5 E100.27173
G1 X243.15 Y195.5 E101.53383
G1 X242.991 Y196.487 E101.5516
M204 S625
M205 X6 Y6
G0 F1800 X242.571 Y196.417
M204 S500
M205 X5 Y5
G1 F1200 X242.114 Y197.227 E101.56813
G1 X241.411 Y197.837 E101.58468
G1 X240.545 Y198.175 E101.6012
G1 X240 Y198.23 E101.61094
G1 X90 Y198.23 E104.27733
G1 X89.083 Y198.071 E104.29388
G1 X88.273 Y197.614 E104.31041
G1 X87.663 Y196.911 E104.32695
G1 X87.325 Y196.045 E104.34348
G1 X87.27 Y195.5 E104.35322
G1 X87.27 Y124.5 E105.61531
G1 X87.429 Y123.583 E105.63185
G1 X87.886 Y122.773 E105.64839
G1 X88.589 Y122.163 E105.66493
G1 X89.455 Y121.825 E105.68146
G1 X90 Y121.77 E105.69119
G1 X240 Y121.77 E108.35759
G1 X240.917 Y121.929 E108.37413
G1 X241.727 Y122.386 E108.39067
G1 X242.337 Y123.089 E108.40721
G1 X242.675 Y123.955 E108.42374
G1 X242.73 Y124.5 E108.43347
G1 X242.73 Y195.5 E109.69557
G1 X242.571 Y196.417 E109.71211
M204 S625
M205 X6 Y6
G0 F1800 X242.152 Y196.34
M204 S500
M205 X5 Y5
G1 F1200 X241.699 Y197.066 E109.72732
G1 X241.013 Y197.576 E109.74252
G1 X240.611 Y197.728 E109.75016
G1 X240 Y197.81 E109.76112
G1 X90 Y197.81 E112.42751
G1 X89.16 Y197.652 E112.44271
G1 X88.434 Y197.199 E112.45792
G1 X87.924 Y196.513 E112.47311
G1 X87.772 Y196.111 E112.48075
G1 X87.69 Y195.5 E112.49171
G1 X87.69 Y124.5 E113.75381
G1 X87.848 Y123.66 E113.769
G1 X88.301 Y122.934 E113.78421
G1 X88.987 Y122.424 E113.79941
G1 X89.389 Y122.272 E113.80705
G1 X90 Y122.19 E113.818
G1 X240 Y122.19 E116.4844
G1 X240.84 Y122.348 E116.49959
G1 X241.566 Y122.801 E116.51481
G1 X242.076 Y123.487 E116.53
G1 X242.228 Y123.889 E116.53764
G1 X242.31 Y124.5 E116.5486
G1 X242.31 Y195.5 E117.81069
G1 X242.152 Y196.34 E117.82589
M204 S625
M205 X6 Y6
G0 F1800 X241.732 Y196.256
M204 S500
M205 X5 Y5
G1 F1200 X241.285 Y196.886 E117.83962
G1 X240.623 Y197.284 E117.85335
G1 X240 Y197.39 E117.86458
G1 X90 Y197.39 E120.53098
G1 X89.244 Y197.232 E120.54471
G1 X88.614 Y196.785 E120.55844
G1 X88.216 Y196.123 E120.57217
G1 X88.11 Y195.5 E120.5834
G1 X88.11 Y124.5 E121.8455
G1 X88.268 Y123.744 E121.85923
G1 X88.715 Y123.114 E121.87296
G1 X89.377 Y122.716 E121.88669
G1 X90 Y122.61 E121.89792
G1 X240 Y122.61 E124.56432
G1 X240.756 Y122.768 E124.57805
G1 X241.386 Y123.215 E124.59178
G1 X241.784 Y123.877 E124.60551
G1 X241.89 Y124.5 E124.61674
G1 X241.89 Y195.5 E125.87884
G1 X241.732 Y196.256 E125.89257
M204 S625
M205 X6 Y6
G0 F1800 X241.313 Y196.162
M204 S500
M205 X5 Y5
